assets/landing-page/Asset/confirm.svg

<svg width="24" height="24" viewBox="0 0 24 24" fill="none" xmlns="http://www.w3.org/2000/svg">
<path d="M9 12L11 14L15.5 9.5M17.9012 4.99851C18.1071 5.49653 18.5024 5.8924 19.0001 6.09907L20.7452 6.82198C21.2433 7.02828 21.639 7.42399 21.8453 7.92206C22.0516 8.42012 22.0516 8.97974 21.8453 9.47781L21.1229 11.2218C20.9165 11.7201 20.9162 12.2803 21.1236 12.7783L21.8447 14.5218C21.9469 14.7685 21.9996 15.0329 21.9996 15.2999C21.9997 15.567 21.9471 15.8314 21.8449 16.0781C21.7427 16.3249 21.5929 16.549 21.4041 16.7378C21.2152 16.9266 20.991 17.0764 20.7443 17.1785L19.0004 17.9009C18.5023 18.1068 18.1065 18.5021 17.8998 18.9998L17.1769 20.745C16.9706 21.2431 16.575 21.6388 16.0769 21.8451C15.5789 22.0514 15.0193 22.0514 14.5212 21.8451L12.7773 21.1227C12.2792 20.9169 11.7198 20.9173 11.2221 21.1239L9.47689 21.8458C8.97912 22.0516 8.42001 22.0514 7.92237 21.8453C7.42473 21.6391 7.02925 21.2439 6.82281 20.7464L6.09972 19.0006C5.8938 18.5026 5.49854 18.1067 5.00085 17.9L3.25566 17.1771C2.75783 16.9709 2.36226 16.5754 2.15588 16.0777C1.94951 15.5799 1.94923 15.0205 2.1551 14.5225L2.87746 12.7786C3.08325 12.2805 3.08283 11.7211 2.8763 11.2233L2.15497 9.47678C2.0527 9.2301 2.00004 8.96568 2 8.69863C1.99996 8.43159 2.05253 8.16715 2.15472 7.92043C2.25691 7.67372 2.40671 7.44955 2.59557 7.26075C2.78442 7.07195 3.00862 6.92222 3.25537 6.8201L4.9993 6.09772C5.49687 5.89197 5.89248 5.4972 6.0993 5.00006L6.82218 3.25481C7.02848 2.75674 7.42418 2.36103 7.92222 2.15473C8.42027 1.94842 8.97987 1.94842 9.47792 2.15473L11.2218 2.87712C11.7199 3.08291 12.2793 3.08249 12.7771 2.87595L14.523 2.15585C15.021 1.94966 15.5804 1.9497 16.0784 2.15597C16.5763 2.36223 16.972 2.75783 17.1783 3.25576L17.9014 5.00153L17.9012 4.99851Z" stroke="#6F72CE" stroke-width="2" stroke-linecap="round" stroke-linejoin="round"/>
</svg>

<svg xmlns="http://www.w3.org/2000/svg" width="24" height="24" fill="none" viewBox="0 0 24 24"><path stroke="#6f72ce" stroke-linecap="round" stroke-linejoin="round" stroke-width="2" d="m9 12 2 2 4.5-4.5m2.401-4.501a2.03 2.03 0 0 0 1.1 1.1l1.744.723a2.033 2.033 0 0 1 1.1 2.656l-.722 1.744a2.03 2.03 0 0 0 0 1.556l.722 1.744a2.033 2.033 0 0 1-1.1 2.656L19 17.902A2.03 2.03 0 0 0 17.9 19l-.723 1.745a2.03 2.03 0 0 1-2.656 1.1l-1.744-.722a2.03 2.03 0 0 0-1.555 0l-1.745.723a2.033 2.033 0 0 1-2.654-1.1L6.1 19.001A2.03 2.03 0 0 0 5 17.9l-1.744-.723a2.033 2.033 0 0 1-1.1-2.654l.721-1.744a2.03 2.03 0 0 0 0-1.556l-.722-1.746a2.033 2.033 0 0 1 1.1-2.657L5 6.098A2.03 2.03 0 0 0 6.1 5l.723-1.745a2.033 2.033 0 0 1 2.656-1.1l1.744.722a2.03 2.03 0 0 0 1.555-.001l1.746-.72a2.03 2.03 0 0 1 2.655 1.1l.723 1.746z"/></svg>
